X: 1
T: Sussex Waltz #2
M: 3/4
L: 1/8
K: G
|:\
d2 d2 cA | B3A G2 | FG A2 F2 | GA B2 c2 |\
d2 d2 cA | B3A G2 | FG A2 F2 |1 G2 A2 B2 :|2 G2 B2 G2 ||
|:\
FG A2 F2 | GA B2 G2 | AB c2 e2 | d2 Bd cA |\
B3d cA | B3A G2 | FG A2 F2 |1 G2 B2 G2 :|2 G6 |]
